images/email.svg

<svg xmlns="http://www.w3.org/2000/svg" width="256" height="256" viewBox="211 444 256 256" enable-background="new 211 444 256 256"><style type="text/css">.st0{fill:#FFFFFF;} .st1{fill:#EF7CBC;}</style><circle class="st0" cx="339" cy="572" r="128"/><path class="st1" d="M250.1 624.8v-98.7c0-.1.2-1.2.5-3.3l58.1 49.7-57.9 55.7c-.5-1.6-.7-2.7-.7-3.4zm7.7-108.9c.8-.3 1.8-.5 2.9-.5h156.5c1 0 2.1.2 3.1.5l-58.3 49.9-7.7 6.2-15.3 12.5-15.2-12.5-7.7-6.2-58.3-49.9zm.2 119l58.5-56.1 22.6 18.3 22.6-18.3 58.5 56.1c-.9.3-1.9.5-2.9.5h-156.6c-.9 0-1.8-.1-2.7-.5zm111.4-62.4l57.9-49.7c.3 1 .5 2.1.5 3.3v98.7c0 1-.2 2.2-.5 3.4l-57.9-55.7z"/></svg>

<?xml version="1.0" encoding="utf-8"?>
<!-- Generator: Adobe Illustrator 19.1.0, SVG Export Plug-In . SVG Version: 6.00 Build 0)  -->
<svg version="1.1" id="Layer_1" xmlns="http://www.w3.org/2000/svg" xmlns:xlink="http://www.w3.org/1999/xlink" x="0px" y="0px"
	 width="256px" height="256px" viewBox="211 444 256 256" style="enable-background:new 211 444 256 256;" xml:space="preserve">
<style type="text/css">
	.st0{fill:#FFFFFF;}
	.st1{fill:#EF7CBC;}
</style>
<circle class="st0" cx="339" cy="572" r="128"/>
<path class="st1" d="M250.1,624.8v-98.7c0-0.1,0.2-1.2,0.5-3.3l58.1,49.7l-57.9,55.7C250.3,626.6,250.1,625.5,250.1,624.8z
	 M257.8,515.9c0.8-0.3,1.8-0.5,2.9-0.5h156.5c1,0,2.1,0.2,3.1,0.5l-58.3,49.9l-7.7,6.2l-15.3,12.5L323.8,572l-7.7-6.2L257.8,515.9z
	 M258,634.9l58.5-56.1l22.6,18.3l22.6-18.3l58.5,56.1c-0.9,0.3-1.9,0.5-2.9,0.5H260.7C259.8,635.4,258.9,635.3,258,634.9z
	 M369.4,572.5l57.9-49.7c0.3,1,0.5,2.1,0.5,3.3v98.7c0,1-0.2,2.2-0.5,3.4L369.4,572.5z"/>
</svg>
